X:83
T:Kilfodda, The
M:C|
L:1/8
Q:120
C:Larry Redican
R:Reel (Key of G)
K:G
"G"BedB "C"AcBA | "G"GBAG "C"EFGE | "G"D~B,3 DEGA | BGG2 "D"ABcA |
"G"BedB "C"AcBA | "G"GBAG "C"EFGE | "G"D~B,3 DEGA |1 "D"BdAF "G"G2 GA :|2 "D"BdAF "G"GABc |:
"G"d3B "D"cBAF | "G"GABG "C"AGEG | "G"DGdG eGdG | "C"cBAG "D"EAAB | "C"c3e "G"dBG2 | "C"edef "G"gedB | G2BG DGBe |1 "D"dBAB "G"GABc :|2 "D"dBAB "G"G3A |]
